antibot/app/images/dist/clicks-icon1.svg

<svg width="60" height="60" viewBox="0 0 60 60" fill="none" xmlns="http://www.w3.org/2000/svg">
<path fill-rule="evenodd" clip-rule="evenodd" d="M3.75 30C3.75 36.9619 6.51562 43.6387 11.4384 48.5616C16.3613 53.4844 23.0381 56.25 30 56.25C36.9619 56.25 43.6387 53.4844 48.5616 48.5616C53.4844 43.6387 56.25 36.9619 56.25 30C56.25 23.0381 53.4844 16.3613 48.5616 11.4384C43.6387 6.51562 36.9619 3.75 30 3.75C23.0381 3.75 16.3613 6.51562 11.4384 11.4384C6.51562 16.3613 3.75 23.0381 3.75 30ZM51.75 30C51.75 35.7685 49.4585 41.3007 45.3796 45.3796C41.3007 49.4585 35.7685 51.75 30 51.75C24.2315 51.75 18.6993 49.4585 14.6204 45.3796C10.5415 41.3007 8.25 35.7685 8.25 30C8.25 24.2315 10.5415 18.6993 14.6204 14.6204C18.6993 10.5415 24.2315 8.25 30 8.25C35.7685 8.25 41.3007 10.5415 45.3796 14.6204C49.4585 18.6993 51.75 24.2315 51.75 30Z" fill="#2175D4"/>
<path fill-rule="evenodd" clip-rule="evenodd" d="M18.75 30C18.75 43.566 23.223 54.75 30 54.75C36.777 54.75 41.25 43.566 41.25 30C41.25 16.434 36.777 5.25 30 5.25C23.223 5.25 18.75 16.434 18.75 30ZM36.75 30C36.75 41.286 33.165 50.25 30 50.25C26.835 50.25 23.25 41.286 23.25 30C23.25 18.714 26.835 9.75 30 9.75C33.165 9.75 36.75 18.714 36.75 30Z" fill="#2175D4"/>
<path d="M10.805 16.4024L13.823 13.0664C14.123 13.3364 14.45 13.6064 14.798 13.8674C18.611 16.7234 24.698 18.4874 31.343 18.4874C37.016 18.4874 42.299 17.2064 46.136 15.0134C47.06 14.4854 47.882 13.9124 48.593 13.3034L51.515 16.7264C50.5388 17.5544 49.4861 18.2877 48.371 18.9164C43.823 21.5204 37.769 22.9844 31.343 22.9844C23.777 22.9844 16.748 20.9504 12.098 17.4674C11.6509 17.1325 11.2194 16.7771 10.805 16.4024ZM10.805 43.6484L13.823 46.9844C14.123 46.7114 14.45 46.4444 14.798 46.1834C18.611 43.3274 24.698 41.5634 31.343 41.5634C37.016 41.5634 42.299 42.8444 46.136 45.0374C47.06 45.5654 47.882 46.1384 48.593 46.7474L51.515 43.3244C50.5376 42.498 49.485 41.7648 48.371 41.1344C43.823 38.5304 37.769 37.0664 31.343 37.0664C23.777 37.0664 16.748 39.1004 12.098 42.5834C11.6509 42.9184 11.2194 43.2737 10.805 43.6484ZM5.24902 32.2514V27.7514H54.749V32.2514H5.24902Z" fill="#2175D4"/>
</svg>

<svg width="60" height="60" fill="none" xmlns="http://www.w3.org/2000/svg"><path fill-rule="evenodd" clip-rule="evenodd" d="M3.75 30a26.25 26.25 0 1 0 52.5 0 26.25 26.25 0 0 0-52.5 0Zm48 0a21.75 21.75 0 1 1-43.5 0 21.75 21.75 0 0 1 43.5 0Z" fill="#2175D4"/><path fill-rule="evenodd" clip-rule="evenodd" d="M18.75 30c0 13.566 4.473 24.75 11.25 24.75S41.25 43.566 41.25 30 36.777 5.25 30 5.25 18.75 16.434 18.75 30Zm18 0c0 11.286-3.585 20.25-6.75 20.25S23.25 41.286 23.25 30 26.835 9.75 30 9.75s6.75 8.964 6.75 20.25Z" fill="#2175D4"/><path d="m10.805 16.402 3.018-3.336c.3.27.627.54.975.801 3.813 2.856 9.9 4.62 16.545 4.62 5.673 0 10.956-1.28 14.793-3.474a15.894 15.894 0 0 0 2.457-1.71l2.922 3.423a20.19 20.19 0 0 1-3.144 2.19c-4.548 2.604-10.602 4.068-17.028 4.068-7.566 0-14.595-2.034-19.245-5.517-.447-.334-.879-.69-1.293-1.065Zm0 27.246 3.018 3.336c.3-.273.627-.54.975-.8 3.813-2.857 9.9-4.62 16.545-4.62 5.673 0 10.956 1.28 14.793 3.473a15.894 15.894 0 0 1 2.457 1.71l2.922-3.423a20.528 20.528 0 0 0-3.144-2.19c-4.548-2.604-10.602-4.068-17.028-4.068-7.566 0-14.595 2.034-19.245 5.517-.447.335-.879.69-1.293 1.065ZM5.249 32.251v-4.5h49.5v4.5h-49.5Z" fill="#2175D4"/></svg>
